X:1
T:Un soir dans sa cabane
C:pour les enfants...   Fichier ABC par Bernard Loffet
L:1/8
Q:350
M:2/2
K:C
 [B2C,2]C,2 [B2C,2][B2C,2] | [A2F,2][BF,]B C,2C,2 | [B2C,2]C,2 [BC,]B[BC,]B | [B2G,2][BC,]^c G,2G,2 | \
 [^c2G,2]G,2 [c2G,2][c2G,2] | [B2G,2][BG,]G C,2C,2 | [BC,]^c[BC,]c [B2C,2][c2G,2] | \
 [B2C,2]C,2 C,2C,2 | [B2C,2][BC,]B [B2C,2][BC,]B | [A2F,2][B2F,2] [B2C,2]C,2 | [B2C,2][BC,]B [B2C,2][BC,]B | \
 [A2F,2][^c2F,2] [c2G,2]G,2 | [^c2G,2][cG,]c [c2G,2][cG,]c | [B2G,2][B2G,2] [G2G,2]G,2 | \
 [BC,]^c[BC,]c [B2G,2][c2G,2] | [B2C,2]C,2 C,2C,2 | \
Z:Created with TablEdit http://www.tabledit.com/  by Bernard Loffet
